svgs/sharp-regular/utility-pole.svg

<svg xmlns="http://www.w3.org/2000/svg" viewBox="0 0 512 512"><!--! Font Awesome Pro 6.6.0 by @fontawesome - https://fontawesome.com License - https://fontawesome.com/license (Commercial License) Copyright 2024 Fonticons, Inc. --><path d="M280 24l0-24L232 0l0 24 0 56L128 80l0-24 0-24L80 32l0 24 0 24L64.2 80c-.2 0-.3 0-.5 0L48 80l0-24 0-24L0 32 0 56l0 48 0 24 24 0 56 0 3.2 0L232 227.2l0 68.8 0 192 0 24 48 0 0-24 0-192 0-68.8L428.8 128l3.2 0 56 0 24 0 0-24 0-48 0-24-48 0 0 24 0 24-15.8 0c-.2 0-.3 0-.5 0L432 80l0-24 0-24-48 0 0 24 0 24L280 80l0-56zm91.2 104L280 188.8l0-60.8 91.2 0zM232 188.8L140.8 128l91.2 0 0 60.8z"/></svg>

<svg xmlns="http://www.w3.org/2000/svg" viewBox="0 0 512 512"><!--! Font Awesome Pro 6.4.2 by @fontawesome - https://fontawesome.com License - https://fontawesome.com/license (Commercial License) Copyright 2023 Fonticons, Inc. --><path d="M280 24V0H232V24 80H128V56 32H80V56 80H64.2c-.2 0-.3 0-.5 0H48V56 32H0V56v48 24H24 80h3.2L232 227.2V296 488v24h48V488 296 227.2L428.8 128H432h56 24V104 56 32H464V56 80H448.2c-.2 0-.3 0-.5 0H432V56 32H384V56 80H280V24zm91.2 104L280 188.8V128h91.2zM232 188.8L140.8 128H232v60.8z"/></svg>
